src/assets/duotone/Trontron.svg

<svg width="24" height="24" viewBox="0 0 24 24"  xmlns="http://www.w3.org/2000/svg">
<path d="M20.6602 8.03906C20.6602 8.26906 20.6002 8.50906 20.4502 8.69906L11.0702 20.6391C10.7302 21.0691 10.3302 21.2191 9.99023 21.0991L10.0002 20.9991L11.0002 9.99906L20.0402 8.18906L20.6602 8.03906Z" />
<path opacity="0.4" d="M20.66 8.04078L20.04 8.19078L11 10.0008L16.95 4.05078C17.07 4.10078 17.17 4.17078 17.24 4.24078L20.37 7.37078C20.55 7.55078 20.65 7.79078 20.66 8.04078Z" />
<path d="M16.9502 4.04971L11.0002 9.99971L3.01016 2.89971L2.66016 2.55971V2.54971C2.86016 2.28971 3.22016 2.15971 3.70016 2.22971L16.6602 3.95971C16.7502 3.96971 16.8502 3.99971 16.9502 4.04971Z" />
<path opacity="0.4" d="M10.9999 10.0005L9.99991 21.0005L9.98991 21.1005C9.73991 21.0105 9.50991 20.7705 9.35991 20.3905L2.63991 3.59055C2.46991 3.17055 2.48991 2.81055 2.65991 2.56055L3.00991 2.90055L10.9999 10.0005Z" />
</svg>

<?xml version="1.0" encoding="UTF-8"?>
<svg width="24" height="24" viewBox="0 0 24 24" xmlns="http://www.w3.org/2000/svg">
 <path d="m20.66 8.0391c0 0.23-0.06 0.47-0.21 0.66l-9.38 11.94c-0.34 0.43-0.74 0.58-1.08 0.46l0.00997-0.1 1-11 9.04-1.81 0.62-0.15z"/>
 <path d="m20.66 8.0408-0.62 0.15-9.04 1.81 5.95-5.95c0.12 0.05 0.22 0.12 0.29 0.19l3.13 3.13c0.18 0.18 0.28 0.42 0.29 0.67z" opacity=".4"/>
 <path d="m16.95 4.0497-5.95 5.95-7.99-7.1-0.35-0.34v-0.01c0.2-0.26 0.56-0.39 1.04-0.32l12.96 1.73c0.09 0.01 0.19 0.04 0.29 0.09z"/>
 <path d="m11 10-0.99999 11-0.01 0.1c-0.25-0.09-0.48-0.33-0.63-0.71l-6.72-16.8c-0.17-0.42-0.15-0.78 0.02-1.03l0.35 0.34 7.99 7.1z" opacity=".4"/>
</svg>
